gy/si-glyph-global.svg

<svg viewBox="0 0 16 16" xmlns="http://www.w3.org/2000/svg" class="si-glyph si-glyph-global" height="1em" width="1em">
  <g fill="#434343" fill-rule="evenodd">
    <path d="M8.048 0a8 8 0 1 0 .001 16.001A8 8 0 0 0 8.048 0ZM8 15A7 7 0 1 1 8 1a7 7 0 0 1 0 14Z" class="si-glyph-fill"/>
    <path d="M2.959 2.684c-.27 1.344.735 3.399 2.872 3.899 2.136.5 1.218.084.886-.583-.334-.667-.035-1.167.482-1.333.518-.167.387.293 1.155-.667.194-2-1.472-.027-1.638-.86C8.366 1.223 5.95.5 5.249.75c-.701.25-2.02.589-2.29 1.934Zm3.914 5.01c-.124.055-.702.416-.901.666-.199.25-.286.778 0 1 .286.223-.016 1.279.755 1.473.771.194 1.543.307 1.572.917.027.61-.072 2.027-.443 2.167.5.277 1.717-1.195 2.145-1.973.429-.777.572-1.889.543-2.167-.029-.277.171-.86.257-1.61.085-.75-.57-.8-.655-1.133-.087-.334-.203-.701-3.273.66ZM13.125 4s-2.012.861-.644 2.14c1.366 1.277 2.062 2.49 1.995 2.768-.062.276-1.38 1.706-.623 1.594.761-.111 1.322-1.611 1.443-2.501.119-.89-.924-2.639-.967-2.777-.036-.141-.722-1.209-1.204-1.224Z" class="si-glyph-fill"/>
  </g>
</svg>

<svg viewBox="0 0 16 16" version="1.1" xmlns="http://www.w3.org/2000/svg" class="si-glyph si-glyph-global" height="1em" width="1em">
  <g stroke="none" stroke-width="1" fill="none" fill-rule="evenodd">
    <g fill="#434343">
      <path d="M8.048,0 C3.63045083,0 0.048,3.582 0.048,8 C0.048,12.418 3.63045083,16 8.048,16 C12.4665577,16 16.048,12.418 16.048,8 C16.048,3.582 12.4665577,0 8.048,0 L8.048,0 Z M8,15 C4.13533409,15 1,11.8671467 1,8 C1,4.13384159 4.13533409,1 8,1 C11.8646659,1 15,4.13384159 15,8 C15,11.868135 11.8646659,15 8,15 L8,15 Z" class="si-glyph-fill"/>
      <path d="M2.959,2.684 C2.689,4.028 3.694,6.083 5.831,6.583 C7.967,7.083 7.049,6.667 6.717,6 C6.383,5.333 6.682,4.833 7.199,4.667 C7.717,4.5 7.586,4.96 8.354,4 C8.548,2 6.882,3.973 6.716,3.14 C8.366,1.223 5.95,0.5 5.249,0.75 C4.548,1 3.229,1.339 2.959,2.684 L2.959,2.684 Z" class="si-glyph-fill"/>
      <path d="M6.873,7.694 C6.749,7.749 6.171,8.11 5.972,8.36 C5.773,8.61 5.686,9.138 5.972,9.36 C6.258,9.583 5.956,10.639 6.727,10.833 C7.498,11.027 8.27,11.14 8.299,11.75 C8.326,12.36 8.227,13.777 7.856,13.917 C8.356,14.194 9.573,12.722 10.001,11.944 C10.43,11.167 10.573,10.055 10.544,9.777 C10.515,9.5 10.715,8.917 10.801,8.167 C10.886,7.417 10.231,7.367 10.146,7.034 C10.059,6.7 9.943,6.333 6.873,7.694 L6.873,7.694 Z" class="si-glyph-fill"/>
      <path d="M13.125,4 C13.125,4 11.113,4.861 12.481,6.14 C13.847,7.417 14.543,8.63 14.476,8.908 C14.414,9.184 13.096,10.614 13.853,10.502 C14.614,10.391 15.175,8.891 15.296,8.001 C15.415,7.111 14.372,5.362 14.329,5.224 C14.293,5.083 13.607,4.015 13.125,4 L13.125,4 Z" class="si-glyph-fill"/>
    </g>
  </g>
</svg>
